X: 5507
T: Buntata 's Sgadan
R: reel
M: 4/4
K: Amajor
A2{/c}BA ceae|f2 ae cBBc|A2{/c}BA ceae|f2 ae cAAB|
A2{/c}BA ceae|f2 ae cBBc|A2{/c}BA ceae|f2 ae cAA2|
f2 cf efce|f2 ae cBBe|f2 cf efce|f2 ae cAA2|
f2 cf efce|f2 ae cBBc|A2{/c}BA ceae|f2 ae cBBc||

